src/images/gamePlatforms/xbox_icon.svg

<svg width="50" height="50" viewBox="0 0 50 50" fill="none" xmlns="http://www.w3.org/2000/svg">
<path d="M7.7878 7.5655V7.56551C7.81852 7.54159 10.0856 5.81592 18.2699 13.9613C18.2931 13.9819 18.3163 14.0076 18.3163 14.0411C18.3163 14.0695 18.2957 14.0926 18.2802 14.1133C13.347 19.981 3.8 33.978 5.66767 39.753C5.68571 39.7994 5.68313 39.8535 5.63934 39.8793C5.59297 39.9024 5.54145 39.8793 5.50796 39.838C2.25277 35.5765 0.492703 30.3611 0.500023 24.9987C0.496035 21.7549 1.13844 18.5429 2.38972 15.5501C3.641 12.5573 5.47608 9.84384 7.7878 7.56807V7.56551C7.78759 7.56568 7.78748 7.56576 7.78748 7.56576L7.7878 7.5655Z" fill="#EBEBF5"/>
<path d="M42.2148 7.5655L42.1916 7.54489L42.2122 7.5655C42.2405 7.59126 40.0405 5.69029 31.7404 13.9484C31.7146 13.969 31.694 13.9948 31.694 14.0308C31.694 14.0566 31.712 14.0798 31.7301 14.1004C36.6607 19.9707 46.2 33.978 44.3323 39.753C44.3169 39.7994 44.3194 39.8535 44.3607 39.8793C44.407 39.9024 44.4611 39.8793 44.492 39.838C47.7472 35.5765 49.5073 30.3611 49.5 24.9987C49.5046 21.7551 48.8627 18.543 47.6119 15.5502C46.361 12.5574 44.5263 9.84388 42.2148 7.56807V7.5655Z" fill="#EBEBF5"/>
<path d="M37.7633 4.08555C34.0125 1.85489 29.9448 0.5 25.0013 0.5C20.0706 0.5 15.9515 1.85489 12.2007 4.10874C12.1804 4.12062 12.1651 4.13938 12.1575 4.16161C12.15 4.18383 12.1506 4.20803 12.1594 4.2298C12.18 4.27616 12.2316 4.28389 12.2779 4.27359C16.4744 3.19947 23.1388 6.69229 24.9472 7.73035C24.9626 7.74065 24.9781 7.75096 25.0013 7.75096C25.0219 7.75096 25.0374 7.74065 25.0528 7.73035C25.7329 7.32079 32.9434 3.22265 37.686 4.24783C37.7349 4.26071 37.7865 4.25041 37.8045 4.20662C37.8225 4.16025 37.8096 4.10874 37.7633 4.08555Z" fill="#EBEBF5"/>
<path d="M25.0013 20.1484C25.0296 20.1484 25.0605 20.1716 25.0786 20.1871C32.4101 25.7611 44.9583 39.5418 41.1277 43.4391L41.1328 43.4339L41.1302 43.4391H41.1277H41.1251C36.6656 47.3529 30.9324 49.5077 24.9987 49.5C19.0643 49.5071 13.3306 47.3525 8.86976 43.4391C5.04683 39.5418 17.5924 25.7611 24.9163 20.1871C24.9369 20.1716 24.9704 20.1484 25.0013 20.1484Z" fill="#EBEBF5"/>
</svg>

<svg width="50" height="50" fill="none" xmlns="http://www.w3.org/2000/svg"><path d="M7.788 7.566c.03-.024 2.298-1.75 10.482 6.395.023.02.046.047.046.08 0 .028-.02.052-.036.072-4.933 5.868-14.48 19.865-12.612 25.64.018.046.015.1-.029.126-.046.023-.098 0-.131-.041A24.391 24.391 0 0 1 .5 24.998a24.417 24.417 0 0 1 7.288-17.43v-.002zM42.215 7.566l-.023-.021.02.02c.028.026-2.172-1.875-10.472 6.383-.025.021-.046.047-.046.083 0 .026.018.049.036.07 4.93 5.87 14.47 19.877 12.602 25.652-.015.046-.013.1.029.126.046.023.1 0 .131-.041a24.391 24.391 0 0 0 5.008-14.84 24.413 24.413 0 0 0-7.285-17.43v-.002zM37.763 4.086C34.013 1.855 29.945.5 25.001.5c-4.93 0-9.05 1.355-12.8 3.609a.098.098 0 0 0-.042.12c.021.047.073.055.119.045 4.196-1.075 10.86 2.418 12.67 3.456.015.01.03.021.053.021.02 0 .036-.01.052-.02.68-.41 7.89-4.508 12.633-3.483.049.013.1.002.118-.041.018-.047.006-.098-.04-.121zM25.001 20.148c.029 0 .06.024.078.04 7.331 5.573 19.88 19.354 16.049 23.251l.005-.005-.003.005h-.005A24.4 24.4 0 0 1 25 49.5a24.413 24.413 0 0 1-16.13-6.06c-3.822-3.898 8.723-17.679 16.047-23.253.02-.015.054-.039.085-.039z" fill="#EBEBF5"/></svg>
